X:3799
T:Danza (CT 079)
R:Danza
C:Tradicional
S:Música Tradicional Asturiana, (C) Tello & Tito. Asturies, 2001.
S:http://pagina.de/MusTradAst <telloytito@asturies.org>
N:Danza, transcrita en L.luarca.
N:Toman parte de esta danza personas de ambos sexos.
N:No completamos aquí el romance con que heomos oído cantar esta melodía, por una razón especial:
N:no siempre a esta grase musical va unido este romance, pues según testimonio de algunas personas a quienes hemos interrogado, se canta también esta melodía con cuartetas octosilábicas.
N:En cambio, existe una melodía que no se canta no siendo con el romance indicado, y en unión siempre de esta letra, es conocida ya de antiguo por los asturianos con el nombre de "danza prima".
N:Así, pues, dejamos la transcripción íntegra del romance para el lugar correspondiente (CT 179).
O:L.luarca
A:Asturies
Z:Cancioneru de Torner 079
M:6/8
L:1/8
Q:3/8=80
W:¡Ai! un galán d'esta villa,
W:¡Ai! un galán d'esta casa,
W:¡Ai! él per equí venía,
W:¡Ai! él per equí pasaba.
K:C
"Solo"GB|:d3 dcd|(d>c)B e2d|d3 dcd|(d>c)B- B"Coro"GB|
d3 dee|(d>e)d G2B|d3 dec|(d>c)B e2d|d3 dcd|[1 (d>c)B- BGB:|[2 (d>c)B- B||


